X:1
T:Napoleon Crossing the Rhine
R:hornpipe
M:C|
K:Ador
EG|A2AB AGEG|cdec d2eg|aged cAGE|G2GA G2EG|
A2AB AGEG|cdec d2eg|aged cABG|A2AG A2:|
|:eg|abag e2ed|cdef g2eg|abag edcA|G2GA G2EG|
A2AB AGEG|cdec d2eg|aged cABG|A2AG A2:|
</abc>
